X: 122
T: Drown Drowth
T: Longways for as many &c.
%R: slip-jig
B: Daniel Wright "Wright's Compleat Collection of Celebrated Country Dances" 1740 p.61
S: http://library.efdss.org/cgi-bin/dancebooks.cgi
Z: 2014 John Chambers <jc:trillian.mit.edu>
N: Repeats modified to match the "Each strain twice" instruction.
M: 9/8
L: 1/8
K: Bb
% - - - - - - - - - - - - - - - - - - - - - - - - -
|:\
E |\
(D/E/)FD BFE D2B, | (D/E/)FD EDD C2E |\
(D/E/)FD Bcd D2B, | (D/E/)FE DB,B, B,2 :|
|: F |\
BdB dBg fdB | A2F A/B/cc c2F |\
B>cd/e/ fga bag | fbd dcB B2 :|
% - - - - - - - - - - - - - - - - - - - - - - - - -
%%center Each strain twice.
%%begintext align
%% The 1st and 2d Cu. set all four and turn single .|
%% Then both Cu. Back to back with their Partners
%% :| then the 1st Cu. cross over and turn,
%% and the 2d Cu. cast off and turn .| Then
%% hands all four quite round, and each turn
%% their Partner :|
%%endtext
% - - - - - - - - - - - - - - - - - - - - - - - - -
%%sep 2 4 300
